<?xml version="1.0" encoding="UTF-8"?>
<map version="1.10" tiledversion="1.11.2" orientation="orthogonal" renderorder="right-down" width="48" height="24" tilewidth="16" tileheight="16" infinite="0" nextlayerid="6" nextobjectid="1">
 <tileset firstgid="1" source="tileset_colored.tsx"/>
 <layer id="5" name="Ground" width="48" height="24">
  <data encoding="csv">
1,1,1,1,1,1,1,1,1,1,1,1,1,1,1,1,1,1,1,1,1,1,1,1,1,1,1,1,1,1,1,1,1,1,1,1,1,1,1,1,1,1,1,1,1,1,1,1,
1,1,1,1,1,1,1,1,1,1,1,1,1,1,1,1,1,1,1,1,1,1,1,1,1,1,1,1,1,1,1,1,1,1,1,1,1,1,1,1,1,1,1,1,1,1,1,1,
1,1,1,1,1,1,1,1,1,1,1,1,1,1,1,1,1,1,1,1,1,1,1,1,1,1,1,1,1,1,1,1,1,1,1,1,1,1,1,1,1,1,1,1,1,1,1,1,
1,1,1,1,1,1,1,1,1,1,1,1,1,1,1,1,1,1,1,1,1,1,1,1,1,1,1,1,1,1,1,1,1,1,1,1,1,1,1,1,1,1,1,1,1,1,1,1,
1,1,1,1,1,1,1,1,1,1,1,1,1,1,1,1,1,1,1,1,1,1,1,1,1,1,1,1,1,1,1,1,1,1,1,1,1,1,1,1,1,1,1,1,1,1,1,1,
1,1,1,1,1,1,1,1,1,1,1,1,1,1,1,1,1,1,1,1,1,1,1,1,1,1,1,1,1,1,1,1,1,1,1,1,1,1,1,1,1,1,1,1,1,1,1,1,
1,1,1,1,1,1,1,1,1,1,1,1,1,1,1,1,1,1,1,1,1,1,1,1,1,1,1,1,1,1,1,1,1,1,1,1,1,1,1,1,1,1,1,1,1,1,1,1,
1,1,1,1,1,1,1,1,1,1,1,1,1,1,1,1,1,1,1,1,1,1,1,1,1,1,1,1,1,1,1,1,1,1,1,1,1,1,1,1,1,1,1,1,1,1,1,1,
1,1,1,1,1,1,1,1,1,1,1,1,1,1,1,1,1,1,1,1,1,1,1,1,1,1,1,1,1,1,1,1,1,1,1,1,1,1,1,1,1,1,1,1,1,1,1,1,
1,1,1,1,1,1,1,1,1,1,1,1,1,1,1,1,1,1,1,1,1,1,1,1,1,1,1,1,1,1,1,1,1,1,1,1,1,1,1,1,1,1,1,1,1,1,1,1,
1,1,1,1,1,1,1,1,1,1,1,1,1,1,1,1,1,1,1,1,1,1,1,1,1,1,1,1,1,1,1,1,1,1,1,1,1,1,1,1,1,1,1,1,1,1,1,1,
1,1,1,1,1,1,1,1,1,1,1,1,1,1,1,1,1,1,1,1,1,1,1,1,1,1,1,1,1,1,1,1,1,1,1,1,1,1,1,1,1,1,1,1,1,1,1,1,
1,1,1,1,1,1,1,1,1,1,1,1,1,1,1,1,1,1,1,1,1,1,1,1,1,1,1,1,1,1,1,1,1,1,1,1,1,1,1,1,1,1,1,1,1,1,1,1,
1,1,1,1,1,1,1,1,1,1,1,1,1,1,1,1,1,1,1,1,1,1,1,1,1,1,1,1,1,1,1,1,1,1,1,1,1,1,1,1,1,1,1,1,1,1,1,1,
1,1,1,1,1,1,1,1,1,1,1,1,1,1,1,1,1,1,1,1,1,1,1,1,1,1,1,1,1,1,1,1,1,1,1,1,1,1,1,1,1,1,1,1,1,1,1,1,
1,1,1,1,1,1,1,1,1,1,1,1,1,1,1,1,1,1,1,1,1,1,1,1,1,1,1,1,1,1,1,1,1,1,1,1,1,1,1,1,1,1,1,1,1,1,1,1,
1,1,1,1,1,1,1,1,1,1,1,1,1,1,1,1,1,1,1,1,1,1,1,1,1,1,1,1,1,1,1,1,1,1,1,1,1,1,1,1,1,1,1,1,1,1,1,1,
1,1,1,1,1,1,1,1,1,1,1,1,1,1,1,1,1,1,1,1,1,1,1,1,1,1,1,1,1,1,1,1,1,1,1,1,1,1,1,1,1,1,1,1,1,1,1,1,
1,1,1,1,1,1,1,1,1,1,1,1,1,1,1,1,1,1,1,1,1,1,1,1,1,1,1,1,1,1,1,1,1,1,1,1,1,1,1,1,1,1,1,1,1,1,1,1,
1,1,1,1,1,1,1,1,1,1,1,1,1,1,1,1,1,1,1,1,1,1,1,1,1,1,1,1,1,1,1,1,1,1,1,1,1,1,1,1,1,1,1,1,1,1,1,1,
1,1,1,1,1,1,1,1,1,1,1,1,1,1,1,1,1,1,1,1,1,1,1,1,1,1,1,1,1,1,1,1,1,1,1,1,1,1,1,1,1,1,1,1,1,1,1,1,
1,1,1,1,1,1,1,1,1,1,1,1,1,1,1,1,1,1,1,1,1,1,1,1,1,1,1,1,1,1,1,1,1,1,1,1,1,1,1,1,1,1,1,1,1,1,1,1,
1,1,1,1,1,1,1,1,1,1,1,1,1,1,1,1,1,1,1,1,1,1,1,1,1,1,1,1,1,1,1,1,1,1,1,1,1,1,1,1,1,1,1,1,1,1,1,1,
1,1,1,1,1,1,1,1,1,1,1,1,1,1,1,1,1,1,1,1,1,1,1,1,1,1,1,1,1,1,1,1,1,1,1,1,1,1,1,1,1,1,1,1,1,1,1,1
</data>
 </layer>
 <layer id="3" name="GroundDeco" width="48" height="24" locked="1">
  <data encoding="csv">
0,0,0,0,0,0,0,0,0,0,0,0,0,0,0,0,0,0,0,0,0,0,0,0,0,0,0,0,0,2,0,0,0,0,0,0,0,0,0,0,0,0,0,0,0,0,0,0,
0,0,0,0,0,0,0,0,0,0,0,0,0,0,0,0,0,2,2,0,0,0,0,0,0,0,0,0,0,0,0,0,0,0,0,0,0,0,0,0,0,0,0,0,0,0,0,0,
0,0,0,0,0,0,0,0,0,0,0,0,0,0,0,0,0,0,0,0,0,0,0,0,0,0,0,0,0,0,0,0,0,0,0,0,0,0,0,0,0,0,0,0,0,0,0,0,
0,0,0,0,2,0,0,0,0,0,0,0,0,0,0,0,0,0,0,0,0,0,0,0,0,0,0,0,0,0,0,0,0,0,0,0,0,0,0,0,0,0,0,0,0,0,0,0,
0,0,0,0,2,0,0,0,0,0,0,0,0,0,0,0,0,0,0,0,0,0,3,3,3,3,3,0,0,0,0,0,0,0,0,0,0,0,0,2,0,0,0,0,0,0,0,0,
2,2,0,0,0,0,2,0,0,0,0,0,41,0,0,0,0,0,0,0,0,0,0,0,3,0,0,0,0,0,0,0,0,0,0,0,0,2,0,0,0,0,0,0,0,0,0,0,
0,0,0,0,0,0,0,0,0,0,0,1610612781,3221225515,0,0,0,0,0,0,0,0,0,0,0,3,0,0,0,0,0,0,0,0,0,0,0,0,0,0,0,0,0,0,0,0,0,0,0,
0,0,0,0,0,0,0,0,0,0,0,0,43,2684354605,0,0,0,0,0,0,0,0,0,0,3,0,0,0,0,0,0,0,0,0,0,0,0,0,0,0,2,0,0,0,0,0,0,0,
0,0,0,0,0,0,0,0,0,0,0,0,0,0,0,0,0,0,0,0,0,0,0,0,3,0,0,0,0,0,0,0,0,0,2,0,0,0,0,0,0,0,0,0,0,0,0,0,
0,2,2,0,2,0,0,0,0,0,0,0,0,0,0,0,0,0,0,0,0,0,0,0,3,0,0,0,0,0,0,0,0,0,0,0,0,0,0,0,0,0,2,0,0,0,0,0,
0,0,0,0,0,0,0,0,0,0,0,0,197,0,0,0,0,0,0,0,0,0,0,0,3,3,3,3,3,0,0,0,0,0,0,0,0,0,0,0,0,0,0,0,0,0,0,0,
0,0,0,0,2,0,0,0,0,2,0,0,41,0,0,0,0,0,0,0,0,0,0,0,0,0,0,0,41,0,0,0,0,0,0,0,0,0,0,0,0,0,0,0,0,0,0,0,
0,2,0,0,0,0,0,0,0,0,0,0,41,2,0,0,0,0,0,0,0,0,0,0,0,0,0,0,43,2684354601,2684354601,2684354601,2684354601,2684354603,2684354601,2684354601,167,2684354601,2684354601,2684354601,2684354601,2684354601,2684354601,2684354601,2684354601,2684354601,2684354601,2684354601,
0,0,0,0,0,0,0,0,0,0,0,2,41,0,0,0,0,0,0,0,0,0,0,41,2,0,0,0,41,0,0,0,0,3221225513,0,0,0,0,0,0,0,0,0,0,0,0,0,0,
0,0,0,0,0,0,0,0,0,0,0,0,41,0,0,0,0,0,0,0,0,0,0,43,2684354601,2684354601,2684354601,2684354601,3221225514,0,0,0,0,3221225513,0,0,0,0,0,0,0,0,0,0,0,0,2,0,
0,0,0,0,0,0,0,3,0,0,1610612781,2684354601,3221225515,0,0,0,0,0,41,0,2,0,0,41,0,0,0,0,0,0,0,0,0,3221225513,0,0,0,0,0,0,0,0,0,0,0,2,0,0,
0,0,0,0,0,0,0,0,3,0,0,0,41,0,0,0,0,2,1610612778,2684354603,2684354601,2684354601,2684354601,3221225515,0,0,0,0,0,0,0,1610612778,2684354601,3221225514,0,0,0,0,0,0,0,0,0,0,0,0,0,0,
0,0,0,0,0,0,0,0,0,0,0,0,41,0,45,0,0,0,0,41,0,2,0,3221225513,0,0,0,0,0,0,0,0,0,0,0,0,0,0,0,0,2,0,0,2,0,0,0,0,
0,2,2,0,0,0,0,3,3,3,2,0,41,0,41,2,0,0,2,41,0,0,0,3221225513,0,0,0,3221225513,0,0,0,0,0,0,0,0,0,0,0,0,0,2,0,0,0,0,0,0,
2,2,0,0,0,0,0,0,0,0,0,0,1610612778,2684354601,1610612779,2684354601,2684354601,2684354601,2684354603,3221225514,0,0,0,0,2684354601,2684354601,2684354601,3221225514,0,0,0,0,0,0,0,0,0,0,0,0,0,0,0,0,2,0,0,0,
0,0,0,0,0,0,0,0,0,0,0,0,0,0,0,0,0,0,3221225513,0,0,0,0,0,0,0,2,0,0,0,0,0,0,0,0,0,0,0,0,0,0,0,0,2,0,0,0,0,
0,0,0,0,2,0,0,0,0,0,0,0,0,0,0,0,0,0,3221225513,0,0,0,0,0,0,0,0,0,0,0,0,0,0,0,0,0,0,0,0,0,0,0,0,0,0,0,0,0,
0,0,0,0,0,0,0,0,0,0,0,0,0,0,0,0,0,0,3221225513,0,0,0,0,41,0,0,0,0,0,0,0,0,0,0,0,0,0,0,0,0,0,0,0,0,0,0,0,0,
0,0,0,0,2,0,2,2,0,0,0,0,0,0,0,0,0,0,1610612778,2684354601,2684354601,2684354601,2684354601,3221225514,0,0,0,0,0,0,0,0,0,0,0,0,0,0,0,2,0,0,0,0,0,0,0,0
</data>
 </layer>
 <layer id="4" name="Overlay" width="48" height="24" locked="1">
  <data encoding="csv">
0,0,33,0,0,68,0,68,0,0,0,0,0,0,0,6,0,0,6,33,33,33,0,0,0,0,0,0,0,0,6,6,0,0,0,0,0,0,0,0,0,0,0,0,0,0,0,0,
0,68,33,68,0,0,0,0,0,0,0,0,0,0,0,0,0,0,0,0,0,0,0,0,0,0,0,0,0,0,68,68,0,33,0,0,0,0,6,68,0,0,0,0,0,0,0,0,
68,6,6,68,0,6,0,0,0,0,355,355,355,355,355,0,0,33,33,0,0,0,0,0,0,0,0,0,0,0,6,6,68,0,0,0,0,68,0,0,0,0,0,0,0,0,0,0,
6,33,68,33,0,0,0,0,0,0,0,0,0,0,0,0,0,0,68,68,0,0,450,0,452,0,449,0,0,0,0,33,68,0,0,0,33,0,0,0,0,0,0,0,0,0,0,0,
68,0,0,68,0,0,0,0,0,0,0,0,0,0,0,0,0,0,33,0,0,0,0,0,0,0,0,0,0,0,0,33,68,0,0,0,68,6,68,0,0,0,0,0,0,0,0,0,
0,0,6,68,33,0,0,0,0,0,0,0,0,0,0,0,0,0,0,0,0,0,449,0,0,0,450,0,0,71,0,0,0,0,0,0,68,0,33,0,0,0,0,0,0,0,0,0,
68,0,68,68,6,0,0,0,0,0,0,0,0,0,0,0,0,6,0,71,0,0,0,0,0,481,0,0,0,0,71,0,0,68,0,0,68,33,0,68,0,0,0,0,0,0,0,0,
68,33,6,6,6,0,0,0,0,0,0,0,0,0,0,0,0,0,0,0,0,0,451,0,0,0,451,0,0,0,0,0,0,0,68,33,0,33,0,0,0,68,0,0,0,0,0,0,
6,6,68,68,0,0,0,0,0,0,355,355,355,355,355,0,0,0,6,0,0,0,0,0,0,0,0,0,0,0,208,208,0,6,0,33,68,33,68,68,68,68,68,0,0,0,0,0,
0,0,0,33,0,33,0,0,0,0,0,0,421,0,0,0,0,0,0,0,0,38,0,0,0,0,0,0,0,0,208,208,0,0,0,0,68,0,6,33,0,33,0,0,0,0,0,0,
0,33,33,33,0,33,0,0,0,0,0,0,0,0,0,0,0,0,0,0,38,0,0,0,0,0,0,0,0,0,208,208,0,0,0,0,0,0,33,68,68,33,0,68,0,0,0,0,
0,33,0,33,0,0,0,68,0,0,0,0,0,0,6,0,0,0,0,0,0,6,358,358,358,0,0,0,0,0,0,0,0,0,68,0,0,0,0,0,0,0,0,0,0,0,0,0,
68,0,33,0,0,0,68,33,355,0,0,0,0,0,0,0,6,359,359,359,0,0,0,0,0,0,6,0,0,0,0,0,0,0,0,0,0,0,0,0,0,0,0,0,0,0,0,0,
68,6,0,0,0,0,0,355,0,0,0,0,0,0,0,6,359,0,0,0,359,0,0,0,0,6,0,0,0,0,0,0,68,0,0,0,0,0,0,0,0,0,0,0,0,0,0,0,
68,0,0,0,0,0,0,0,0,0,0,0,0,0,0,0,0,0,0,0,0,0,0,0,0,0,0,0,0,0,491,492,493,0,38,0,0,0,33,0,6,68,33,6,6,0,0,0,
0,0,68,0,0,0,0,0,0,355,0,0,0,0,0,0,0,0,0,0,0,0,6,0,0,0,38,0,0,0,0,0,0,0,0,38,0,0,68,68,0,0,0,68,6,0,68,0,
6,68,0,0,0,0,0,0,0,0,0,0,0,0,0,0,0,0,0,0,0,0,0,0,0,358,358,358,358,0,0,0,0,0,0,0,0,68,0,33,33,6,68,33,0,0,0,0,
68,6,6,68,0,0,0,0,0,0,0,0,0,0,0,0,0,6,0,0,0,0,0,0,0,0,0,0,0,0,206,206,206,206,206,0,0,0,0,0,0,68,68,0,0,0,0,0,
33,0,0,68,68,0,0,0,0,0,0,0,0,0,0,0,0,0,0,0,0,38,0,0,0,0,0,0,0,0,206,206,206,206,206,0,0,0,0,0,68,0,68,6,68,0,0,0,
0,0,68,68,0,0,0,0,0,0,0,0,0,0,0,0,0,0,0,0,0,0,359,359,0,0,0,0,6,0,0,0,0,0,0,0,0,0,68,0,0,6,33,0,0,0,0,0,
0,33,33,68,33,33,0,0,0,33,0,0,0,0,0,0,38,0,0,0,0,359,0,0,359,0,0,6,0,68,0,0,0,0,0,0,0,0,0,0,33,0,6,0,0,0,0,0,
68,68,33,0,0,0,6,68,6,0,68,0,0,0,0,0,0,6,0,38,0,0,0,0,0,0,0,0,68,0,0,0,0,0,0,0,0,0,0,68,6,68,0,0,68,33,0,0,
68,68,0,33,33,6,0,6,0,0,6,0,33,6,0,0,0,0,0,0,0,0,0,0,6,0,0,0,0,0,0,0,0,6,68,68,0,6,0,68,6,33,68,0,0,6,0,0,
33,33,68,68,0,0,0,0,68,33,6,68,0,0,6,0,0,0,0,0,0,0,0,0,0,0,0,0,0,0,0,0,33,33,0,33,6,68,68,0,68,0,0,0,0,0,0,0
</data>
 </layer>
 <layer id="2" name="Collision" width="48" height="24" locked="1">
  <data encoding="csv">
0,0,0,0,0,0,0,0,0,0,0,0,0,0,0,0,0,0,0,0,0,0,0,0,0,0,0,0,0,0,0,0,0,0,137,0,0,0,0,0,0,0,0,0,0,0,0,0,
0,0,0,0,0,0,0,0,138,2684354697,2684354697,2684354697,2684354697,2684354697,2684354697,2684354697,2684354698,0,0,0,488,102,102,102,102,102,102,102,488,0,0,0,0,0,137,0,0,0,0,0,0,0,0,0,0,0,0,0,
0,0,0,0,0,0,0,0,137,385,0,0,0,0,0,385,137,0,0,0,488,0,0,0,0,0,0,0,488,0,0,0,0,0,137,0,0,0,0,0,0,0,0,0,0,0,0,0,
0,0,0,0,0,0,0,0,137,417,387,360,360,360,387,417,137,0,0,0,488,0,0,0,0,0,0,0,488,0,0,0,0,0,137,0,0,0,0,0,0,0,0,0,0,0,0,0,
0,0,0,0,0,0,0,0,137,417,0,417,326,417,0,417,137,0,0,0,488,0,0,0,0,0,0,0,488,0,0,0,0,0,137,0,0,0,0,0,0,0,0,0,0,0,0,0,
0,0,0,0,0,0,0,0,137,417,0,0,0,0,0,417,137,0,0,0,488,0,0,0,0,0,0,0,488,0,0,0,138,2684354697,3221225610,0,0,0,0,0,0,0,0,0,0,0,0,0,
0,0,0,0,0,0,0,0,137,417,0,0,0,227,0,417,137,0,0,0,488,0,0,0,0,0,0,0,488,0,0,0,137,0,0,0,0,0,0,0,0,0,0,0,0,0,0,0,
0,0,0,0,0,0,0,0,137,417,0,0,0,0,0,417,137,0,0,0,488,0,0,0,0,0,0,0,488,0,0,0,137,0,0,0,0,0,0,0,0,0,0,0,0,0,0,0,
0,0,0,0,0,0,0,0,137,386,0,0,0,0,0,386,137,0,0,0,488,102,488,102,0,102,488,102,488,0,0,0,137,0,0,0,0,0,0,0,0,0,0,0,0,0,0,0,
0,0,0,0,0,0,0,0,137,417,387,417,0,417,387,417,137,0,0,0,0,0,0,0,0,0,0,0,0,0,0,0,137,0,0,0,0,0,0,0,0,0,0,0,0,0,0,0,
0,0,0,0,0,0,0,0,1610612874,2684354697,2684354697,2684354697,0,2684354697,2684354697,2684354697,3221225610,0,0,0,0,0,0,0,0,0,0,0,0,0,0,0,1610612874,2684354697,2684354697,2684354697,2684354698,0,0,0,0,0,0,0,0,0,0,0,
0,0,0,0,0,0,0,0,0,0,0,0,0,0,0,0,0,0,0,0,0,0,0,0,0,166,166,166,0,0,0,0,0,0,0,0,137,0,0,0,0,0,0,0,0,0,0,0,
0,0,0,0,0,0,0,0,0,0,0,0,0,0,0,0,0,0,0,0,0,0,422,293,422,0,0,0,0,0,0,0,0,0,0,0,0,0,0,0,0,0,0,0,0,0,0,0,
0,0,0,0,0,0,0,0,418,417,0,0,0,0,0,0,0,556,417,556,0,0,0,0,0,0,0,0,0,0,0,0,0,0,0,0,137,0,0,0,0,0,0,0,0,0,0,0,
0,0,0,0,0,0,354,417,417,417,369,0,0,0,0,0,417,556,297,556,417,0,0,0,0,0,0,0,0,0,0,0,0,0,0,0,137,0,0,0,0,0,0,0,0,0,0,0,
0,0,0,0,0,0,0,0,0,0,0,0,0,0,0,0,0,0,0,0,0,241,0,0,0,0,0,0,0,0,523,524,525,0,0,0,137,0,0,0,0,0,0,0,0,0,0,0,
0,0,0,0,0,401,0,0,0,417,417,0,0,0,453,0,0,0,0,0,0,0,0,0,0,0,0,0,0,0,0,0,0,0,0,0,137,0,0,0,0,0,0,0,0,0,0,0,
0,0,0,0,0,0,2147484017,417,401,417,417,2147484002,0,0,0,0,0,0,0,0,0,0,0,0,2147483919,424,488,292,488,0,0,0,0,0,0,0,137,0,0,0,0,0,0,0,0,0,0,0,
0,0,0,0,0,0,0,0,0,0,0,0,0,0,0,0,0,0,0,0,0,0,0,0,0,0,0,0,0,0,0,0,0,0,0,0,137,0,0,0,0,0,0,0,0,0,0,0,
0,0,0,0,0,0,0,0,0,0,0,0,0,0,0,0,0,0,0,0,0,0,0,0,0,0,0,0,0,0,0,0,0,0,0,0,137,0,0,0,0,0,0,0,0,0,0,0,
0,0,0,0,0,0,0,0,0,0,0,0,0,0,0,0,0,0,0,0,0,0,417,417,0,0,0,0,0,0,0,138,2684354697,2684354697,2684354697,2684354697,3221225610,0,0,0,0,0,0,0,0,0,0,0,
0,0,0,0,0,0,0,0,0,0,0,0,0,0,0,0,0,0,0,0,0,417,417,293,417,0,0,0,0,0,0,137,0,0,0,0,0,0,0,0,0,0,0,0,0,0,0,0,
0,0,0,0,0,0,0,0,0,0,0,0,0,0,0,0,0,0,0,0,0,0,0,0,0,0,0,138,2684354697,2684354697,2684354697,3221225610,0,0,0,0,0,0,0,0,0,0,0,0,0,0,0,0,
0,0,0,0,0,0,0,0,0,0,0,0,0,0,0,0,0,0,0,0,0,0,0,0,0,0,0,137,0,0,0,0,0,0,0,0,0,0,0,0,0,0,0,0,0,0,0,0
</data>
 </layer>
</map>
